icons/home-line.svg

<svg viewBox="0 0 24 24" fill="currentColor" xmlns="http://www.w3.org/2000/svg"><path d="M21 20C21 20.5523 20.5523 21 20 21H4C3.44772 21 3 20.5523 3 20V9.48907C3 9.18048 3.14247 8.88917 3.38606 8.69972L11.3861 2.47749C11.7472 2.19663 12.2528 2.19663 12.6139 2.47749L20.6139 8.69972C20.8575 8.88917 21 9.18048 21 9.48907V20ZM19 19V9.97815L12 4.53371L5 9.97815V19H19Z"/></svg>

<svg xmlns="http://www.w3.org/2000/svg" viewBox="0 0 24 24">
    <g>
        <path fill="none" d="M0 0h24v24H0z"/>
        <path d="M21 20a1 1 0 0 1-1 1H4a1 1 0 0 1-1-1V9.49a1 1 0 0 1 .386-.79l8-6.222a1 1 0 0 1 1.228 0l8 6.222a1 1 0 0 1 .386.79V20zm-2-1V9.978l-7-5.444-7 5.444V19h14z"/>
    </g>
</svg>
